src/lib/packages/icons/src/assets/filled/folder-connection.svg

<svg xmlns="http://www.w3.org/2000/svg" width="24" height="24" fill="none"><path fill="currentColor" d="M12.75 15v3.148a2 2 0 0 1 1.102 1.102H19a.75.75 0 0 1 0 1.5h-5.148A2 2 0 0 1 12 22a2 2 0 0 1-1.852-1.25H5a.75.75 0 0 1 0-1.5h5.148c.203-.5.601-.899 1.102-1.102V15H7c-2 0-3-1-3-3V5c0-2 1-3 3-3h3l2 2h5c2 0 3 1 3 3v5c0 2-1 3-3 3h-4.25Z"/></svg>

<svg width="24" height="24" viewBox="0 0 24 24" fill="none" xmlns="http://www.w3.org/2000/svg">
<path d="M12.75 15V18.148C13.25 18.351 13.6491 18.749 13.8521 19.25H19C19.414 19.25 19.75 19.586 19.75 20C19.75 20.414 19.414 20.75 19 20.75H13.8521C13.5551 21.482 12.839 22 12 22C11.161 22 10.4449 21.482 10.1479 20.75H5C4.586 20.75 4.25 20.414 4.25 20C4.25 19.586 4.586 19.25 5 19.25H10.1479C10.3509 18.75 10.749 18.351 11.25 18.148V15H7C5 15 4 14 4 12V5C4 3 5 2 7 2H10L12 4H17C19 4 20 5 20 7V12C20 14 19 15 17 15H12.75Z" fill="currentColor"/>
</svg>
